symbols/web/cake/materialsymbolsoutlined/cake_wght200gradN25fill1_24px.svg

<svg xmlns="http://www.w3.org/2000/svg" height="24" width="24"><path d="M6.125 13.475V9.65q0-.65.45-1.1.45-.45 1.075-.45h3.875V6.625q-.425-.25-.7-.6-.275-.35-.275-.825 0-.275.113-.55.112-.275.312-.475L12 3.15l1.025 1.025q.2.2.313.475.112.275.112.55 0 .475-.275.825t-.7.6V8.1h3.875q.625 0 1.075.45.45.45.45 1.1v3.825ZM4.85 20.85q-.3 0-.5-.2t-.2-.525V15.95q0-.65.438-1.1.437-.45 1.087-.45h12.65q.65 0 1.088.45.437.45.437 1.1v4.175q0 .325-.212.525-.213.2-.538.2Z"/></svg>

<svg xmlns="http://www.w3.org/2000/svg" height="24" width="24"><path d="M6.125 13.475V9.65Q6.125 9 6.575 8.55Q7.025 8.1 7.65 8.1H11.525V6.625Q11.1 6.375 10.825 6.025Q10.55 5.675 10.55 5.2Q10.55 4.925 10.663 4.65Q10.775 4.375 10.975 4.175L12 3.15L13.025 4.175Q13.225 4.375 13.338 4.65Q13.45 4.925 13.45 5.2Q13.45 5.675 13.175 6.025Q12.9 6.375 12.475 6.625V8.1H16.35Q16.975 8.1 17.425 8.55Q17.875 9 17.875 9.65V13.475ZM4.85 20.85Q4.55 20.85 4.35 20.65Q4.15 20.45 4.15 20.125V15.95Q4.15 15.3 4.588 14.85Q5.025 14.4 5.675 14.4H18.325Q18.975 14.4 19.413 14.85Q19.85 15.3 19.85 15.95V20.125Q19.85 20.45 19.638 20.65Q19.425 20.85 19.1 20.85Z"/></svg>
